static/img/logo.svg

<svg width="550" height="700" xmlns="http://www.w3.org/2000/svg" data-name="图层 1">

 <g>
  <title>Layer 1</title>
  <polygon id="svg_7" fill="#008aff" points="0 539.14 171.63 700.12 171.63 565.47 0 404.49 0 539.14" class="cls-2"/>
  <path id="svg_8" fill="#0050c1" d="m545,0l-171.34,160.7l-2.66,132.19l79.53,-74.6l0,68.28l-178,167l-178.06,-167l0,-68.28l79.53,74.6l-2.67,-132.19l-171.33,-160.7l0,334s272.5,259.44 272.5,255.6c0,3.84 272.5,-255.6 272.5,-255.6l0,-334z" class="cls-3"/>
  <polygon id="svg_9" fill="#008aff" points="373.37 565.47 373.37 700.12 544.99 539.14 544.99 404.49 373.37 565.47" class="cls-2"/>
 </g>
</svg>

<svg id="图层_1" data-name="图层 1" xmlns="http://www.w3.org/2000/svg" viewBox="0 0 3574.23 700"><defs><style>.cls-1{fill:#1d2129;}.cls-2{fill:#008aff;}.cls-3{fill:#0050c1;}</style></defs><title>vArmor</title><path class="cls-1" d="M863,205.74h78.4l118.73,320.45,121-320.45h78.4L1093.65,609.92H1025.9Z"/><path class="cls-1" d="M1507.71,77.11h74.6L1797,609.92h-86l-165.17-427-162.89,427h-87.53Zm-98.19,328.06h274v74.59h-274Z"/><path class="cls-1" d="M1870.77,206.5h76.88V256q19.78-32,59.76-46.81t93.23-14.84v73.83q-44.91,0-79.54,12.56t-53.66,35q-19,22.45-19,51.38V609.92h-77.65Z"/><path class="cls-1" d="M2173,206.5h75.35v57.85q20.55-32.72,51.38-51t74.21-18.26q38.82,0,70,19.79t54,53.28q12.16-20.55,33.49-36.92A176.92,176.92,0,0,1,2580.93,205a171.19,171.19,0,0,1,57.09-9.89q41.1,0,75,20.55a149.73,149.73,0,0,1,53.66,55.94q19.79,35.4,19.79,78V609.92H2708V377q0-29.69-10.27-53.28a85.7,85.7,0,0,0-31.21-37.67Q2645.62,272,2614.42,272q-27.4,0-48.72,14.47t-34.25,41.48q-12.94,27-12.94,62v220h-78.4V377q0-45.66-24-75.35T2348,272q-29.69,0-51.37,16t-33.5,42.62q-11.8,26.65-11.79,59.37v220H2173Z"/><path class="cls-1" d="M3062,622.1q-58.62,0-106.19-28.93t-75-78.78q-27.41-49.84-27.4-110,0-57.09,27.4-105.42a204.7,204.7,0,0,1,75-76.5q47.57-28.16,106.19-28.16t105.8,28.16a207.52,207.52,0,0,1,74.59,75.73q27.4,47.58,27.4,106.19,0,60.13-27.4,110t-74.59,78.78Q3120.58,622.09,3062,622.1Zm0-73.07q39.55,0,68.88-20.17a131.43,131.43,0,0,0,44.91-53.29,165,165,0,0,0,15.6-71.16,148,148,0,0,0-15.6-67,129,129,0,0,0-44.91-50.61Q3101.55,267.4,3062,267.4q-38.83,0-68.89,19.41a126.29,126.29,0,0,0-45.67,51,148.37,148.37,0,0,0-15.6,66.6,164.66,164.66,0,0,0,15.6,71.16,131.27,131.27,0,0,0,44.91,53.29Q3021.63,549,3062,549Z"/><path class="cls-1" d="M3344.36,206.5h76.88V256Q3441,224,3481,209.17t93.24-14.84v73.83q-44.91,0-79.54,12.56t-53.66,35q-19,22.45-19,51.38V609.92h-77.64Z"/><polygon class="cls-2" points="0 539.14 171.63 700.12 171.63 565.47 0 404.49 0 539.14"/><path class="cls-3" d="M545,0,373.66,160.7,371,292.89l79.53-74.6v68.28l-178,167-178.06-167V218.29L174,292.89,171.33,160.7,0,0V334S272.5,593.44,272.5,589.6C272.5,593.44,545,334,545,334Z"/><polygon class="cls-2" points="373.37 565.47 373.37 700.12 544.99 539.14 544.99 404.49 373.37 565.47"/></svg>
